!!!!SEGMENT: pl-sa--l-1643--017_anonim--alma-redemptoris-mater.krn
!!!cenid: 16xx:1372
!!!COM: Anonim
!!!COM-rismid: pe30004985
!!!CDT:
!!!CNT:
!!!OTL: Alma redemptoris mater
!!!PDT:
!!!AGN: Sacred
!!!SMS-siglum: PL-SA
!!!SMS-shelfmark: L 1643
!!!SMS-shelfwork: 017 W
!!!SMS-variant:
!!!SMS-altvar:
!!!NIFC-rismid: 1001063193
!!!URL-scan: http://repozytorium.nifc.pl/skany/pl-sa-nut--l1643
!!!ONB-nifc: UWAGA: 8 ksiąg. Primi chori: 1mus Cantus (x), C 2dus (39), C 3tius (x), Bassus (46-47); Secondi chori: Primus Cantus (x), C 2dus (x), Altus (44-45), Bassus (x). UWAGA: metrum 2/2. Nie dodawać pustych linii, chyba że w rękopisie pojawiają się dodatkowe oznaczenia dotyczące pełnej obsady (a 4, a 8 itp.)
**kern	**text	**kern	**text	**kern	**text
*group1	*	*group1	*	*group1	*
*part3	*part3	*part2	*part2	*part1	*part1
*staff3	*staff3	*staff2	*staff2	*staff1	*staff1
*I"Altus secundi Chori.	*	*I"Bassus Primi Chori	*	*I"Cantus 2dus Primi Chori.	*
*I'[Coro 2 A]	*	*I'[Coro 1 B]	*	*I'[Coro 1 C 2]	*
*clefC2	*	*clefC3	*	*clefG2	*
*k[b-]	*	*k[b-]	*	*k[b-]	*
*F:	*	*F:	*	*F:	*
*M2/2	*	*M2/2	*	*M2/2	* 
*met(C|)	*	*met(C|)	*	*met(C|)	*
=1-	=1-	=1-	=1-	=1-	=1-
1r	.	1F	Al-	1cc	Al-
=2-	=2-	=2-	=2-	=2-	=2-
1e	Al-	1c	-ma	1cc	-ma
=3-	=3-	=3-	=3-	=3-	=3-
0f	-ma	2r	.	2r	.
.	.	1f\	re-	1a/	re-
=4-	=4-	=4-	=4-	=4-	=4-
.	.	.	.	.	.
.	.	2f\	-dem-	2cc\	-dem-
=5-	=5-	=5-	=5-	=5-	=5-
2r	.	0B-	-pto-	2.dd\	-pto-
1d/	re-	.	.	.	.
.	.	.	.	4ee\	.
=6-	=6-	=6-	=6-	=6-	=6-
.	.	.	.	2ff\	-ris
2f\	-dem-	.	.	2dd\	.
=7-	=7-	=7-	=7-	=7-	=7-
1f	-pto-	1F	-ris	0cc	ma-
=8-	=8-	=8-	=8-	=8-	=8-
2f\	-ris	2.A/	ma-	.	.
4c/	ma-	.	.	.	.
4d/	.	4B-/	.	.	.
!	!	!LO:SIC:v:t=custos c	!	!	!
!	!	!LO:LB:g=original	!	!	!
=9-	=9-	=9-	=9-	=9-	=9-
4e/	.	1c	-ter	1cc	-ter
4f/	.	.	.	.	.
2g\	.	.	.	.	.
=10-	=10-	=10-	=10-	=10-	=10-
1.g	-ter	0r	.	0r	.
=11-	=11-	=11-	=11-	=11-	=11-
2g\	Ma-	.	.	.	.
=12-	=12-	=12-	=12-	=12-	=12-
2e/	-ter	2r	.	2r	.
2r	.	2c/	qu	2cc\	quae
=13-	=13-	=13-	=13-	=13-	=13-
00r	.	2.c/	per-	2.cc\	per-
.	.	4c/	-vi-	4cc\	-vi-
=14-	=14-	=14-	=14-	=14-	=14-
.	.	2F/	-a	1a	-a
.	.	1f\	ce-	.	.
=15-	=15-	=15-	=15-	=15-	=15-
.	.	.	.	2r	.
.	.	2e\	-li	1cc\	cae-
=16-	=16-	=16-	=16-	=16-	=16-
.	.	2f\	Por-	.	.
.	.	2d\	-ta	2b-/	-li
=17-	=17-	=17-	=17-	=17-	=17-
1r	.	1c	ma-	2.cc\	por-
.	.	.	.	4g/	.
=18-	=18-	=18-	=18-	=18-	=18-
2r	.	1F	-nes	2a\	-ta
2b-\	que	.	.	2b-/	ma-
!LO:SIC:v:t=custos f	!	!	!	!LO:SIC:v:t=custos a	!
!LO:LB:g=original	!	!	!	!LO:LB:g=original	!
=19-	=19-	=19-	=19-	=19-	=19-
2.f\	per	4F/	ma-	1a	-nes
.	.	4G/	.	.	.
.	.	4A/	.	.	.
4f\	vi-	4B-/	.	.	.
=20-	=20-	=20-	=20-	=20-	=20-
2g\	-a	1c	-nes	1g	.
1g\	Ce-	.	.	.	.
=21-	=21-	=21-	=21-	=21-	=21-
.	.	0r	.	0r	.
2d/	-li	.	.	.	.
=22-	=22-	=22-	=22-	=22-	=22-
2g\	Por-	.	.	.	.
2a\	-ta	.	.	.	.
=23-	=23-	=23-	=23-	=23-	=23-
2.d/	ma-	1r	.	1r	.
4e/	-nes	.	.	.	.
=24-	=24-	=24-	=24-	=24-	=24-
1f	.	2r	.	2r	.
.	.	2F/	et	2cc\	et
=25-	=25-	=25-	=25-	=25-	=25-
0r	.	4F/	Ste-	1.cc	ſtel-
.	.	4G/	.	.	.
.	.	4A/	.	.	.
.	.	4B-/	.	.	.
=26-	=26-	=26-	=26-	=26-	=26-
.	.	2c/	.	.	.
.	.	2A/	-la	2cc\	-la
!	!	!LO:LB:g=original	!	!	!
=27-	=27-	=27-	=27-	=27-	=27-
1r	.	1B-	ma-	2.b-/	ma-
.	.	.	.	4a/	.
=28-	=28-	=28-	=28-	=28-	=28-
2r	.	1c	-ris	1g	-ris
2e/	(et)	.	.	.	.
=29-	=29-	=29-	=29-	=29-	=29-
1g	Ste-	0r	.	0r	.
=30-	=30-	=30-	=30-	=30-	=30-
2g\	-la	.	.	.	.
2g\	ma-	.	.	.	.
=31-	=31-	=31-	=31-	=31-	=31-
1f	.	1r	.	1r	.
=32-	=32-	=32-	=32-	=32-	=32-
1e	-ris	2r	.	2r	.
*	*	*	*ij	*	*
.	.	2c/	et	2cc\	et
=33-	=33-	=33-	=33-	=33-	=33-
0r	.	4c/	ste-	2.cc\	ſtel-
.	.	4B-/	.	.	.
.	.	4A/	.	.	.
.	.	4G/	.	4b-/	.
=34-	=34-	=34-	=34-	=34-	=34-
.	.	2F/	.	2a/	-la
.	.	2A/	-la	1cc\	ma-
=35-	=35-	=35-	=35-	=35-	=35-
1r	.	1G	ma-	.	.
.	.	.	.	2a/	-ris
=36-	=36-	=36-	=36-	=36-	=36-
2r	.	1F	-ris	1cc	.
*	*	*	*Xij	*	*
2f\	su-	.	.	.	.
=37-	=37-	=37-	=37-	=37-	=37-
2f\	-cu-	1r	.	1r	.
4g\	-re	.	.	.	.
4f\	ca-	.	.	.	.
!LO:SIC:v:t=custos f	!	!	!	!	!
!LO:LB:g=original	!	!	!	!	!
=38-	=38-	=38-	=38-	=38-	=38-
2f\	-den-	2r	.	2r	.
2e/	-ti	2c/	ſuc-	2g/	ſuc-
=39-	=39-	=39-	=39-	=39-	=39-
0r	.	2A/	-cur-	2cc\	-cur-
.	.	4B-/	-re	4b-/	-re
.	.	4c/	ca-	4g/	ca-
=40-	=40-	=40-	=40-	=40-	=40-
.	.	2A/	-den-	2a/	-den-
!	!	!	!	!LO:SIC:v:t=custos b-	!
!	!	!	!	!LO:LB:g=original	!
.	.	2G/	-ti	2b-/	-ti
=41-	=41-	=41-	=41-	=41-	=41-
2r	.	2r	.	2r	.
2.g\	Su-	2.G/	sur-	2.dd\	ſur-
=42-	=42-	=42-	=42-	=42-	=42-
.	.	.	.	.	.
4g\	-cu-	4G/	-ge-	4dd\	-ge-
2g\	-re	2G/	-re	2dd\	-re
=43-	=43-	=43-	=43-	=43-	=43-
2.g\	Su-	2.c/	sur-	2.cc\	ſur-
4e/	-cu-	4c/	-ge-	4cc\	.
!	!	!LO:SIC:v:t=custos c	!	!	!
!	!	!LO:LB:g=original	!	!	!
=44-	=44-	=44-	=44-	=44-	=44-
1e	-re	2c/	-re	2cc\	-ge-
.	.	2A/	qui	2cc\,<	-re
=45-	=45-	=45-	=45-	=45-	=45-
1a	qui	1B-	cu-	1dd	qui
=46-	=46-	=46-	=46-	=46-	=46-
2f\	cu-	1F	-rant	2.a/	cu-
2a\	-rat	.	.	.	.
.	.	.	.	4b-/	-rat
=47-	=47-	=47-	=47-	=47-	=47-
1.g	Po-	1.c	Po-	1.cc	po-
=48-	=48-	=48-	=48-	=48-	=48-
.	.	.	.	.	.
2g\	-pu-	2c/	-pu-	2cc\	-pu-
=49-	=49-	=49-	=49-	=49-	=49-
1f	-lo	2F/	-lo	2cc\,<	-lo
.	.	1f\	tu	1cc\	tu
=50-	=50-	=50-	=50-	=50-	=50-
00r	.	.	.	.	.
.	.	2c/	que	2cc\	quae
=51-	=51-	=51-	=51-	=51-	=51-
.	.	2d\	ge-	2a/	.
.	.	2B-/	-nu-	2b-/	ge-
=52-	=52-	=52-	=52-	=52-	=52-
.	.	1c	-iſt	2.g/	-nu-
.	.	.	.	4a/	-i-
=53-	=53-	=53-	=53-	=53-	=53-
.	.	2G/	na-	4b-/	-ſti
.	.	.	.	4cc\	.
.	.	2G/	-tu-	2dd\	na-
=54-	=54-	=54-	=54-	=54-	=54-
0r	.	1c	-re	1cc	.
!	!	!	!	!LO:SIC:v:t=custos dd	!
!	!	!	!	!LO:LB:g=original	!
=55-	=55-	=55-	=55-	=55-	=55-
.	.	2B-/	mi-	2dd\	-tu-
.	.	2A/	-ran-	2cc\	-ra
=56-	=56-	=56-	=56-	=56-	=56-
1r	.	1G	.	2dd\	mi-
.	.	.	.	2b-/	-ran-
=57-	=57-	=57-	=57-	=57-	=57-
2r	.	1c	-te	1cc	-te
1g\	tu	.	.	.	.
=58-	=58-	=58-	=58-	=58-	=58-
.	.	00r	.	00r	.
2a\	que	.	.	.	.
=59-	=59-	=59-	=59-	=59-	=59-
2d/	ge-	.	.	.	.
2g\	-nu-	.	.	.	.
=60-	=60-	=60-	=60-	=60-	=60-
1f	-i-	.	.	.	.
=61-	=61-	=61-	=61-	=61-	=61-
2g\	-ſti	.	.	.	.
!LO:SIC:v:t=custos g	!	!	!	!	!
!LO:LB:g=original	!	!	!	!	!
2g\	na-	.	.	.	.
=62-	=62-	=62-	=62-	=62-	=62-
1a	-tu-	0r	.	0r	.
=63-	=63-	=63-	=63-	=63-	=63-
2a\	-ra	.	.	.	.
2g\	mi-	.	.	.	.
=64-	=64-	=64-	=64-	=64-	=64-
1f	-ran-	1r	.	1r	.
=65-	=65-	=65-	=65-	=65-	=65-
1g	-te	2r	.	2r	.
!	!	!LO:SIC:v:t=custos c	!	!	!
!	!	!LO:LB:g=original	!	!	!
.	.	2.c/	tu-	2.cc\	tu-
=66-	=66-	=66-	=66-	=66-	=66-
0r	.	.	.	.	.
.	.	4F/	-um	4cc\	-um
.	.	2c/	san-	2cc\	san-
=67-	=67-	=67-	=67-	=67-	=67-
.	.	4G/	-ctu	4b-/	-ctum
.	.	2B-/	ge-	2dd\	ge-
.	.	4c/	-ni-	4cc\	-ni-
=68-	=68-	=68-	=68-	=68-	=68-
2r	.	2d\	-to-	2b-/	-to-
2.g\	tu-	2c/	-rem	2cc\	-rem
=69-	=69-	=69-	=69-	=69-	=69-
.	.	0r	.	0r	.
4g\	-um	.	.	.	.
2e/	San-	.	.	.	.
=70-	=70-	=70-	=70-	=70-	=70-
4g\	-ctum	.	.	.	.
2f\	ge-	.	.	.	.
4d/	-ni-	.	.	.	.
=71-	=71-	=71-	=71-	=71-	=71-
2a\	-to-	2r	.	2r	.
2d/	-rem	2.G/	Vir-	2.b-/	Vir-
=72-	=72-	=72-	=72-	=72-	=72-
0r	.	.	.	.	.
.	.	4G/	-go	4b-/	-go
.	.	2c/	pri-	2cc\	pri-
=73-	=73-	=73-	=73-	=73-	=73-
.	.	4A/	-us	4cc\	-us
.	.	2d\	ac	2a/	ac
.	.	4c/	po-	4cc\	po-
=74-	=74-	=74-	=74-	=74-	=74-
2r	.	4.B-/	-ſte-	4.dd\	-ste-
.	.	8B-/	-ri-	8dd\	-ri-
!	!	!	!	!LO:SIC:v:t=custos cc#	!
!	!	!	!	!LO:LB:g=original	!
!	!	!	!	!LO:TX:t=P:problem:# below	!
2.e/	Ga-	2A/	-us	2cc#X\	-us
=75-	=75-	=75-	=75-	=75-	=75-
.	.	0r	.	0r	.
4e/	-bri-	.	.	.	.
2a\	-e-	.	.	.	.
=76-	=76-	=76-	=76-	=76-	=76-
2a\	-lis	.	.	.	.
2a\	ab	.	.	.	.
=77-	=77-	=77-	=77-	=77-	=77-
1g	o-	1r	.	1r	.
=78-	=78-	=78-	=78-	=78-	=78-
1g	-re	2r	.	2r	.
.	.	1c\	su-	2.g/	ſu-
=79-	=79-	=79-	=79-	=79-	=79-
00r	.	.	.	.	.
.	.	.	.	4a/	-mens
.	.	2B-/	-mens	2b-/	.
=80-	=80-	=80-	=80-	=80-	=80-
.	.	2.A/	i-	2.ccny\	il-
.	.	4B-/	.	4b-/	.
!	!	!LO:SIC:v:t=custos c	!	!	!
!	!	!LO:PB:g=original	!	!	!
=81-	=81-	=81-	=81-	=81-	=81-
.	.	2c/	-lud	2g/	-lud
.	.	1d\	.	2dd\	a-
=82-	=82-	=82-	=82-	=82-	=82-
.	.	.	.	4a/	-ve
.	.	.	.	4b-/,>	.
.	.	2c/	.	1cc\	il-
=83-	=83-	=83-	=83-	=83-	=83-
0r	.	2A/	.	.	.
.	.	2F/	a-	2cc\	-lud
=84-	=84-	=84-	=84-	=84-	=84-
.	.	1G	.	1b-	a-
=85-	=85-	=85-	=85-	=85-	=85-
2r	.	1A	-ve	1cc	-ve
!LO:SIC:v:t=custos e	!	!	!	!	!
!LO:PB:g=original	!	!	!	!	!
1e\	Pe-	.	.	.	.
=86-	=86-	=86-	=86-	=86-	=86-
.	.	00r	.	00r	.
2d/	-ca-	.	.	.	.
=87-	=87-	=87-	=87-	=87-	=87-
1g	-to-	.	.	.	.
=88-	=88-	=88-	=88-	=88-	=88-
1f	-rum	.	.	.	.
=89-	=89-	=89-	=89-	=89-	=89-
1r	.	.	.	.	.
=90-	=90-	=90-	=90-	=90-	=90-
2r	.	00r	.	00r	.
2f\	Pe-	.	.	.	.
=91-	=91-	=91-	=91-	=91-	=91-
2e/	-ca-	.	.	.	.
1f\	-to-	.	.	.	.
=92-	=92-	=92-	=92-	=92-	=92-
.	.	.	.	.	.
2a\	-rum	.	.	.	.
=93-	=93-	=93-	=93-	=93-	=93-
1.a	Mi-	.	.	.	.
=94-	=94-	=94-	=94-	=94-	=94-
.	.	0r	.	0r	.
2d/	-se-	.	.	.	.
=95-	=95-	=95-	=95-	=95-	=95-
*lig	*	*	*	*	*
1f	-re-	.	.	.	.
=96-	=96-	=96-	=96-	=96-	=96-
1g	-re	1r	.	1r	.
*Xlig	*	*	*	*	*
=97-	=97-	=97-	=97-	=97-	=97-
1a	.	2r	.	2r	.
.	.	1f\	Pec-	1cc\	pec-
=98-	=98-	=98-	=98-	=98-	=98-
00r	.	.	.	.	.
.	.	2c/	-ca-	2cc\	-ca-
=99-	=99-	=99-	=99-	=99-	=99-
.	.	1d	-to-	1a	-to-
=100-	=100-	=100-	=100-	=100-	=100-
.	.	1A	-rum	2a/	-rum
.	.	.	.	1ff\	pec-
=101-	=101-	=101-	=101-	=101-	=101-
.	.	2B-/	.	.	.
.	.	2c/	mi-	2ee\	-ca-
!	!	!	!	!LO:SIC:v:t=custos ff	!
!	!	!	!	!LO:LB:g=original	!
=102-	=102-	=102-	=102-	=102-	=102-
00r	.	2.d\	-se-	1ff	-to-
.	.	4e\	-re-	.	.
=103-	=103-	=103-	=103-	=103-	=103-
.	.	2f\	.	0cc	-rum
.	.	2c/	-re	.	.
=104-	=104-	=104-	=104-	=104-	=104-
.	.	2r	.	.	.
.	.	1f\	Pe-	.	.
!	!	!LO:SIC:v:t=custos e	!	!	!
!	!	!LO:LB:g=original	!	!	!
=105-	=105-	=105-	=105-	=105-	=105-
.	.	.	.	2cc\	mi-
*	*	*	*ij	*	*
.	.	2e\	-ca-	2g/	-se-
=106-	=106-	=106-	=106-	=106-	=106-
00r	.	1f	-to-	1cc	-re-
=107-	=107-	=107-	=107-	=107-	=107-
.	.	2c/	-rum	2cc\	-re
.	.	1B-/	mi-	1dd\	mi-
=108-	=108-	=108-	=108-	=108-	=108-
.	.	.	.	.	.
.	.	2A/	-se-	2cc\	-se-
=109-	=109-	=109-	=109-	=109-	=109-
.	.	1G	-re-	1b-	-re-
=110-	=110-	=110-	=110-	=110-	=110-
0r	.	1F	-re	1cc	-re
*	*	*	*Xij	*	*
=111-	=111-	=111-	=111-	=111-	=111-
.	.	1r	.	1r	.
=112-	=112-	=112-	=112-	=112-	=112-
1.c	Pe-	1.f	Pe-	1cc	pec-
=113-	=113-	=113-	=113-	=113-	=113-
.	.	.	.	2a/	-ca-
2c/	-ca-	2c/	-ca-	2g/	-to-
=114-	=114-	=114-	=114-	=114-	=114-
1c	-to-	4F/	-to-	0cc	-rum
.	.	4G/	.	.	.
.	.	4A/	.	.	.
.	.	4B-/	.	.	.
=115-	=115-	=115-	=115-	=115-	=115-
2e/	-rum	1c	-rum	.	.
2c/	Pe-	.	.	.	.
!LO:SIC:v:t=custos c	!	!	!	!	!
!LO:LB:g=original	!	!	!	!	!
=116-	=116-	=116-	=116-	=116-	=116-
2c/	-ca-	1.F	mi-	1.cc	mi-
2f\	-to-	.	.	.	.
=117-	=117-	=117-	=117-	=117-	=117-
1f	-rum	.	.	.	.
.	.	2F/	-se-	2cc\	-ſe-
=118-	=118-	=118-	=118-	=118-	=118-
2f\	Mi-	0B-	-re-	1.dd	-re-
2c/	-se-	.	.	.	.
=119-	=119-	=119-	=119-	=119-	=119-
1f	-re-	.	.	.	.
.	.	.	.	2b-/	.
=120-	=120-	=120-	=120-	=120-	=120-
0f	-re	0F	-re	0cc;;	-re?
=-	=-	=-	=-	=-	=-
*-	*-	*-	*-	*-	*-
!!!system-decoration: [(s1,s2,s3)]
!!!ENC:Anastazja Marusiak
!!!END:2021-10-01
!!!EED: Jędrzej Mróz
!!!ESR: 2021-10-08
!!!RDF**kern: > = above
!!!RDF**kern: < = below
